flaticon/gastronomy/knife-2.svg

<svg xmlns="http://www.w3.org/2000/svg" width="32" height="32" viewBox="0 0 24 24">
    <path d="M 22.753906 2.375 L 21.484375 1.105469 L 1.785156 20.804688 C 1.777344 20.804688 1.765625 20.808594 1.757812 20.8125 L 1.761719 20.828125 L 0 22.589844 L 0.738281 22.757812 C 1.136719 22.851562 1.558594 22.898438 1.996094 22.898438 C 5.597656 22.898438 10.503906 19.808594 16.617188 13.695312 L 16.914062 13.402344 L 15.144531 11.632812 C 15.96875 11.453125 17.273438 11.046875 18.507812 10.132812 C 18.605469 10.050781 20.867188 8.136719 22.140625 5.996094 L 22.167969 5.941406 C 22.191406 5.894531 22.398438 5.484375 23.21875 5.648438 L 23.394531 5.679688 L 23.539062 5.582031 C 23.578125 5.550781 23.941406 5.289062 23.992188 4.730469 C 24.058594 4.050781 23.640625 3.257812 22.753906 2.375 Z M 13.050781 10.722656 L 14.109375 11.777344 L 14.707031 12.375 C 9.105469 17.726562 6.824219 19.292969 3.429688 20.34375 Z M 1.722656 22.050781 L 2.214844 21.558594 C 6.847656 20.351562 9.171875 18.824219 15.300781 12.96875 L 15.726562 13.398438 C 9.820312 19.25 5.007812 22.21875 1.722656 22.050781 Z M 23.128906 4.785156 C 22.097656 4.671875 21.566406 5.230469 21.40625 5.589844 C 20.203125 7.597656 17.992188 9.472656 17.988281 9.472656 C 16.550781 10.539062 14.953125 10.835938 14.421875 10.910156 L 13.644531 10.128906 L 21.484375 2.289062 L 22.160156 2.96875 C 23.058594 3.863281 23.171875 4.390625 23.160156 4.625 C 23.15625 4.691406 23.144531 4.742188 23.128906 4.785156 Z M 23.128906 4.785156"/>
    <path d="M16.53125 9.269531C16.53125 9.617188 16.25 9.898438 15.902344 9.898438 15.554688 9.898438 15.273438 9.617188 15.273438 9.269531 15.273438 8.921875 15.554688 8.640625 15.902344 8.640625 16.25 8.640625 16.53125 8.921875 16.53125 9.269531zM21.5625 4.238281C21.5625 4.585938 21.28125 4.867188 20.933594 4.867188 20.585938 4.867188 20.304688 4.585938 20.304688 4.238281 20.304688 3.890625 20.585938 3.609375 20.933594 3.609375 21.28125 3.609375 21.5625 3.890625 21.5625 4.238281zM21.5625 4.238281"/>
</svg>

<svg xmlns="http://www.w3.org/2000/svg" width="32" height="32" viewBox="0 0 24 24">
    <path d="M22.754 2.375l-1.27-1.27-19.699 19.7a.072.072 0 0 0-.027.008l.004.015L0 22.59l.738.168c.399.094.82.14 1.258.14 3.602 0 8.508-3.09 14.621-9.203l.297-.293-1.77-1.77c.825-.179 2.13-.585 3.364-1.5.097-.081 2.36-1.995 3.633-4.136l.027-.055c.023-.046.23-.457 1.05-.293l.177.032.144-.098c.04-.031.402-.293.453-.852.067-.68-.351-1.472-1.238-2.355zm-9.703 8.348l1.058 1.054.598.598c-5.602 5.352-7.883 6.918-11.277 7.969zM1.723 22.05l.492-.492c4.633-1.207 6.957-2.735 13.086-8.59l.426.43C9.82 19.25 5.007 22.218 1.723 22.05zM23.129 4.785c-1.031-.113-1.563.445-1.723.805-1.203 2.008-3.414 3.883-3.418 3.883-1.437 1.066-3.035 1.363-3.566 1.437l-.777-.781 7.84-7.84.675.68c.899.894 1.012 1.422 1 1.656a.553.553 0 0 1-.031.16zm0 0"/>
    <path d="M16.531 9.27a.628.628 0 1 1-1.257 0 .628.628 0 0 1 1.257 0zm0 0M21.563 4.238a.628.628 0 1 1-1.257.001.628.628 0 0 1 1.256 0zm0 0"/>
</svg>
